dist/img/basket.svg

<svg width="63" height="61" viewBox="0 0 63 61" fill="none" xmlns="http://www.w3.org/2000/svg">
<path d="M24.5 27C22.85 27 21.515 28.35 21.515 30C21.515 31.65 22.85 33 24.5 33C26.15 33 27.5 31.65 27.5 30C27.5 28.35 26.15 27 24.5 27ZM15.5 3V6H18.5L23.9 17.385L21.875 21.06C21.635 21.48 21.5 21.975 21.5 22.5C21.5 24.15 22.85 25.5 24.5 25.5H42.5V22.5H25.13C24.92 22.5 24.755 22.335 24.755 22.125L24.8 21.945L26.15 19.5H37.325C38.45 19.5 39.44 18.885 39.95 17.955L45.32 8.22C45.44 8.01 45.5 7.755 45.5 7.5C45.5 6.675 44.825 6 44 6H21.815L20.405 3H15.5ZM39.5 27C37.85 27 36.515 28.35 36.515 30C36.515 31.65 37.85 33 39.5 33C41.15 33 42.5 31.65 42.5 30C42.5 28.35 41.15 27 39.5 27Z" fill="#2D2D2D"/>
<path d="M11.104 57H9.152C8.94933 57 8.77867 56.9467 8.64 56.84C8.50667 56.7333 8.38133 56.576 8.264 56.368L5.8 52.48C5.736 52.368 5.66667 52.2773 5.592 52.208C5.52267 52.1333 5.44533 52.0747 5.36 52.032C5.28 51.984 5.18667 51.952 5.08 51.936C4.97867 51.92 4.86133 51.912 4.728 51.912H3.44V57H1.288V45.432H3.44V50.28H4.528C4.74667 50.28 4.936 50.2427 5.096 50.168C5.256 50.0933 5.40533 49.9547 5.544 49.752L8.08 46.008C8.18667 45.8373 8.312 45.6987 8.456 45.592C8.6 45.4853 8.77333 45.432 8.976 45.432H10.816L7.672 50.072C7.53867 50.2747 7.384 50.4427 7.208 50.576C7.032 50.7093 6.83733 50.8133 6.624 50.888C6.944 50.9787 7.21333 51.1227 7.432 51.32C7.656 51.512 7.86933 51.7787 8.072 52.12L11.104 57ZM15.1236 48.664C15.7316 48.664 16.2836 48.7627 16.7796 48.96C17.281 49.1573 17.7076 49.4373 18.0596 49.8C18.417 50.1627 18.6916 50.6053 18.8836 51.128C19.0756 51.6507 19.1716 52.2347 19.1716 52.88C19.1716 53.5307 19.0756 54.1173 18.8836 54.64C18.6916 55.1627 18.417 55.608 18.0596 55.976C17.7076 56.344 17.281 56.6267 16.7796 56.824C16.2836 57.0213 15.7316 57.12 15.1236 57.12C14.5103 57.12 13.953 57.0213 13.4516 56.824C12.9503 56.6267 12.521 56.344 12.1636 55.976C11.8116 55.608 11.537 55.1627 11.3396 54.64C11.1476 54.1173 11.0516 53.5307 11.0516 52.88C11.0516 52.2347 11.1476 51.6507 11.3396 51.128C11.537 50.6053 11.8116 50.1627 12.1636 49.8C12.521 49.4373 12.9503 49.1573 13.4516 48.96C13.953 48.7627 14.5103 48.664 15.1236 48.664ZM15.1236 55.6C15.8063 55.6 16.3103 55.3707 16.6356 54.912C16.9663 54.4533 17.1316 53.7813 17.1316 52.896C17.1316 52.0107 16.9663 51.336 16.6356 50.872C16.3103 50.408 15.8063 50.176 15.1236 50.176C14.4303 50.176 13.9156 50.4107 13.5796 50.88C13.249 51.344 13.0836 52.016 13.0836 52.896C13.0836 53.776 13.249 54.448 13.5796 54.912C13.9156 55.3707 14.4303 55.6 15.1236 55.6ZM22.6551 54.872C22.8791 55.144 23.1218 55.336 23.3831 55.448C23.6498 55.56 23.9378 55.616 24.2471 55.616C24.5458 55.616 24.8151 55.56 25.0551 55.448C25.2951 55.336 25.4978 55.1653 25.6631 54.936C25.8338 54.7067 25.9645 54.4187 26.0551 54.072C26.1458 53.72 26.1911 53.3067 26.1911 52.832C26.1911 52.352 26.1511 51.9467 26.0711 51.616C25.9965 51.28 25.8871 51.008 25.7431 50.8C25.5991 50.592 25.4231 50.44 25.2151 50.344C25.0125 50.248 24.7805 50.2 24.5191 50.2C24.1085 50.2 23.7591 50.288 23.4711 50.464C23.1831 50.6347 22.9111 50.8773 22.6551 51.192V54.872ZM22.5511 49.912C22.8871 49.5333 23.2685 49.2267 23.6951 48.992C24.1218 48.7573 24.6231 48.64 25.1991 48.64C25.6471 48.64 26.0551 48.7333 26.4231 48.92C26.7965 49.1067 27.1165 49.3787 27.3831 49.736C27.6551 50.088 27.8631 50.5253 28.0071 51.048C28.1565 51.5653 28.2311 52.16 28.2311 52.832C28.2311 53.4453 28.1485 54.0133 27.9831 54.536C27.8178 55.0587 27.5805 55.512 27.2711 55.896C26.9671 56.28 26.5965 56.5813 26.1591 56.8C25.7271 57.0133 25.2418 57.12 24.7031 57.12C24.2445 57.12 23.8525 57.0507 23.5271 56.912C23.2018 56.768 22.9111 56.5707 22.6551 56.32V59.68H20.6791V48.792H21.8871C22.1431 48.792 22.3111 48.912 22.3911 49.152L22.5511 49.912ZM29.1366 49.68C29.446 49.3813 29.83 49.1387 30.2886 48.952C30.7473 48.76 31.2966 48.664 31.9366 48.664C32.4433 48.664 32.894 48.7253 33.2886 48.848C33.6833 48.9653 34.014 49.128 34.2806 49.336C34.5526 49.5387 34.758 49.7733 34.8966 50.04C35.0406 50.3013 35.1126 50.576 35.1126 50.864C35.1126 51.0187 35.0886 51.1813 35.0406 51.352C34.998 51.5173 34.9233 51.68 34.8166 51.84C34.7153 52 34.5793 52.1493 34.4086 52.288C34.238 52.4213 34.0273 52.536 33.7766 52.632C34.2246 52.8027 34.5846 53.0533 34.8566 53.384C35.134 53.7147 35.2726 54.1227 35.2726 54.608C35.2726 55.008 35.1793 55.3627 34.9926 55.672C34.8113 55.9813 34.5686 56.2453 34.2646 56.464C33.9606 56.6773 33.6113 56.84 33.2166 56.952C32.8273 57.064 32.4246 57.12 32.0086 57.12C31.774 57.12 31.5206 57.0987 31.2486 57.056C30.982 57.0133 30.7126 56.9413 30.4406 56.84C30.1686 56.7333 29.902 56.5947 29.6406 56.424C29.3793 56.248 29.142 56.032 28.9286 55.776L29.4966 55.056C29.5766 54.9333 29.6966 54.872 29.8566 54.872C29.9793 54.872 30.0966 54.912 30.2086 54.992C30.3206 55.0667 30.4486 55.152 30.5926 55.248C30.742 55.3387 30.918 55.424 31.1206 55.504C31.3233 55.5787 31.5766 55.616 31.8806 55.616C32.3766 55.616 32.7526 55.504 33.0086 55.28C33.2646 55.056 33.3926 54.776 33.3926 54.44C33.3926 54.1093 33.2593 53.8507 32.9926 53.664C32.7313 53.4773 32.3046 53.384 31.7126 53.384H30.7846V52.096H31.7126C32.23 52.096 32.6273 52.0053 32.9046 51.824C33.182 51.6427 33.3206 51.4027 33.3206 51.104C33.3206 50.832 33.198 50.608 32.9526 50.432C32.7126 50.256 32.3553 50.168 31.8806 50.168C31.598 50.168 31.358 50.1973 31.1606 50.256C30.9633 50.3147 30.7926 50.3787 30.6486 50.448C30.51 50.512 30.3926 50.5733 30.2966 50.632C30.2006 50.6907 30.11 50.72 30.0246 50.72C29.934 50.72 29.8566 50.704 29.7926 50.672C29.7286 50.6347 29.6593 50.5573 29.5846 50.44L29.1366 49.68ZM44.1958 48.792V57H42.2198V52.208C42.2198 52.0853 42.2251 51.952 42.2358 51.808C42.2518 51.6587 42.2704 51.5093 42.2918 51.36C42.1851 51.6053 42.0678 51.8213 41.9398 52.008C41.9291 52.0187 41.8758 52.0933 41.7798 52.232C41.6838 52.3653 41.5584 52.5387 41.4038 52.752C41.2544 52.9653 41.0838 53.208 40.8918 53.48C40.6998 53.7467 40.5051 54.0187 40.3078 54.296C39.8438 54.952 39.3184 55.6933 38.7318 56.52C38.6571 56.632 38.5584 56.7413 38.4358 56.848C38.3184 56.9547 38.1824 57.008 38.0278 57.008H36.8198V48.8H38.7958V53.592C38.7958 53.7147 38.7878 53.8507 38.7718 54C38.7611 54.144 38.7451 54.2907 38.7238 54.44C38.8411 54.1787 38.9584 53.9627 39.0758 53.792C39.0811 53.7813 39.1318 53.7093 39.2278 53.576C39.3238 53.4427 39.4464 53.2693 39.5958 53.056C39.7504 52.8427 39.9238 52.6027 40.1158 52.336C40.3078 52.064 40.5024 51.7867 40.6998 51.504C41.1638 50.848 41.6918 50.1067 42.2838 49.28C42.3584 49.1627 42.4571 49.0533 42.5798 48.952C42.7024 48.8453 42.8411 48.792 42.9958 48.792H44.1958ZM53.2999 48.792V57H51.3239V53.368H48.1239V57H46.1479V48.792H48.1239V51.904H51.3239V48.792H53.2999ZM59.5933 53.496C59.0226 53.5227 58.5426 53.5733 58.1533 53.648C57.7639 53.7173 57.4519 53.808 57.2173 53.92C56.9826 54.032 56.8146 54.1627 56.7133 54.312C56.6119 54.4613 56.5613 54.624 56.5613 54.8C56.5613 55.1467 56.6626 55.3947 56.8653 55.544C57.0733 55.6933 57.3426 55.768 57.6733 55.768C58.0786 55.768 58.4279 55.696 58.7213 55.552C59.0199 55.4027 59.3106 55.1787 59.5933 54.88V53.496ZM55.0653 49.936C56.0093 49.072 57.1453 48.64 58.4733 48.64C58.9533 48.64 59.3826 48.72 59.7613 48.88C60.1399 49.0347 60.4599 49.2533 60.7213 49.536C60.9826 49.8133 61.1799 50.1467 61.3133 50.536C61.4519 50.9253 61.5213 51.352 61.5213 51.816V57H60.6253C60.4386 57 60.2946 56.9733 60.1933 56.92C60.0919 56.8613 60.0119 56.7467 59.9533 56.576L59.7773 55.984C59.5693 56.1707 59.3666 56.336 59.1693 56.48C58.9719 56.6187 58.7666 56.736 58.5533 56.832C58.3399 56.928 58.1106 57 57.8653 57.048C57.6253 57.1013 57.3586 57.128 57.0653 57.128C56.7186 57.128 56.3986 57.0827 56.1053 56.992C55.8119 56.896 55.5586 56.7547 55.3453 56.568C55.1319 56.3813 54.9666 56.1493 54.8493 55.872C54.7319 55.5947 54.6733 55.272 54.6733 54.904C54.6733 54.696 54.7079 54.4907 54.7773 54.288C54.8466 54.08 54.9586 53.8827 55.1133 53.696C55.2733 53.5093 55.4786 53.3333 55.7293 53.168C55.9799 53.0027 56.2866 52.8587 56.6493 52.736C57.0173 52.6133 57.4439 52.5147 57.9293 52.44C58.4146 52.36 58.9693 52.312 59.5933 52.296V51.816C59.5933 51.2667 59.4759 50.8613 59.2413 50.6C59.0066 50.3333 58.6679 50.2 58.2253 50.2C57.9053 50.2 57.6386 50.2373 57.4253 50.312C57.2173 50.3867 57.0333 50.472 56.8733 50.568C56.7133 50.6587 56.5666 50.7413 56.4333 50.816C56.3053 50.8907 56.1613 50.928 56.0013 50.928C55.8626 50.928 55.7453 50.8933 55.6493 50.824C55.5533 50.7493 55.4759 50.664 55.4173 50.568L55.0653 49.936Z" fill="#2D2D2D"/>
</svg>

<svg width="63" height="61" fill="none" xmlns="http://www.w3.org/2000/svg"><path d="M24.5 27a2.996 2.996 0 0 0-2.985 3c0 1.65 1.335 3 2.985 3s3-1.35 3-3-1.35-3-3-3Zm-9-24v3h3l5.4 11.385-2.025 3.675a2.9 2.9 0 0 0-.375 1.44c0 1.65 1.35 3 3 3h18v-3H25.13a.371.371 0 0 1-.375-.375l.045-.18 1.35-2.445h11.175a2.986 2.986 0 0 0 2.625-1.545l5.37-9.735c.12-.21.18-.465.18-.72 0-.825-.675-1.5-1.5-1.5H21.815l-1.41-3H15.5Zm24 24a2.996 2.996 0 0 0-2.985 3c0 1.65 1.335 3 2.985 3s3-1.35 3-3-1.35-3-3-3ZM11.104 57H9.152a.815.815 0 0 1-.512-.16 1.607 1.607 0 0 1-.376-.472L5.8 52.48a1.138 1.138 0 0 0-.208-.272.81.81 0 0 0-.232-.176.757.757 0 0 0-.28-.096 2.281 2.281 0 0 0-.352-.024H3.44V57H1.288V45.432H3.44v4.848h1.088c.219 0 .408-.037.568-.112.16-.075.31-.213.448-.416l2.536-3.744c.107-.17.232-.31.376-.416a.849.849 0 0 1 .52-.16h1.84l-3.144 4.64a2.009 2.009 0 0 1-1.048.816c.32.09.59.235.808.432.224.192.437.459.64.8L11.104 57Zm4.02-8.336c.608 0 1.16.099 1.656.296.501.197.928.477 1.28.84.357.363.632.805.824 1.328.192.523.288 1.107.288 1.752 0 .65-.096 1.237-.288 1.76a3.74 3.74 0 0 1-.824 1.336c-.352.368-.779.65-1.28.848a4.445 4.445 0 0 1-1.656.296 4.53 4.53 0 0 1-1.672-.296 3.616 3.616 0 0 1-1.288-.848 3.897 3.897 0 0 1-.824-1.336 5.076 5.076 0 0 1-.288-1.76c0-.645.096-1.23.288-1.752.197-.523.472-.965.824-1.328a3.67 3.67 0 0 1 1.288-.84 4.53 4.53 0 0 1 1.672-.296Zm0 6.936c.682 0 1.186-.23 1.512-.688.33-.459.496-1.13.496-2.016 0-.885-.166-1.56-.496-2.024-.326-.464-.83-.696-1.512-.696-.694 0-1.208.235-1.544.704-.331.464-.496 1.136-.496 2.016 0 .88.165 1.552.496 2.016.336.459.85.688 1.544.688Zm7.531-.728c.224.272.467.464.728.576.267.112.555.168.864.168.299 0 .568-.056.808-.168.24-.112.443-.283.608-.512.17-.23.302-.517.392-.864.09-.352.136-.765.136-1.24 0-.48-.04-.885-.12-1.216-.075-.336-.184-.608-.328-.816a1.304 1.304 0 0 0-.528-.456 1.607 1.607 0 0 0-.696-.144c-.41 0-.76.088-1.048.264-.288.17-.56.413-.816.728v3.68Zm-.104-4.96a4.282 4.282 0 0 1 1.144-.92c.427-.235.928-.352 1.504-.352.448 0 .856.093 1.224.28.374.187.694.459.96.816.272.352.48.79.624 1.312.15.517.224 1.112.224 1.784 0 .613-.083 1.181-.248 1.704a4.124 4.124 0 0 1-.712 1.36 3.263 3.263 0 0 1-1.112.904c-.432.213-.917.32-1.456.32-.459 0-.85-.07-1.176-.208a2.935 2.935 0 0 1-.872-.592v3.36H20.68V48.792h1.208c.256 0 .424.12.504.36l.16.76Zm6.586-.232c.309-.299.693-.541 1.152-.728.458-.192 1.008-.288 1.648-.288.506 0 .957.061 1.352.184.394.117.725.28.992.488.272.203.477.437.616.704a1.683 1.683 0 0 1 .144 1.312 1.6 1.6 0 0 1-.224.488c-.102.16-.238.31-.408.448-.171.133-.382.248-.632.344.448.17.808.421 1.08.752.277.33.416.739.416 1.224 0 .4-.094.755-.28 1.064-.182.31-.424.573-.728.792a3.446 3.446 0 0 1-1.048.488c-.39.112-.792.168-1.208.168a4.92 4.92 0 0 1-.76-.064 4.232 4.232 0 0 1-.808-.216 4.405 4.405 0 0 1-.8-.416 3.396 3.396 0 0 1-.712-.648l.568-.72c.08-.123.2-.184.36-.184.122 0 .24.04.352.12l.384.256c.149.09.325.176.528.256.202.075.456.112.76.112.496 0 .872-.112 1.128-.336a1.07 1.07 0 0 0 .384-.84c0-.33-.134-.59-.4-.776-.262-.187-.688-.28-1.28-.28h-.928v-1.288h.928c.517 0 .914-.09 1.192-.272.277-.181.416-.421.416-.72 0-.272-.123-.496-.368-.672-.24-.176-.598-.264-1.072-.264-.283 0-.523.03-.72.088a3.472 3.472 0 0 0-.512.192 3.48 3.48 0 0 0-.352.184.514.514 0 0 1-.504.04.703.703 0 0 1-.208-.232l-.448-.76Zm15.059-.888V57H42.22v-4.792c0-.123.005-.256.016-.4.016-.15.034-.299.056-.448a3.884 3.884 0 0 1-.352.648c-.01.01-.064.085-.16.224l-.376.52-.512.728c-.192.267-.387.539-.584.816l-1.576 2.224a1.667 1.667 0 0 1-.296.328.588.588 0 0 1-.408.16H36.82V48.8h1.976v4.792c0 .123-.008.259-.024.408-.01.144-.027.29-.048.44a4.164 4.164 0 0 1 .504-.864c.096-.133.218-.307.368-.52l.52-.72.584-.832c.464-.656.992-1.397 1.584-2.224.074-.117.173-.227.296-.328a.617.617 0 0 1 .416-.16h1.2Zm9.104 0V57h-1.976v-3.632h-3.2V57h-1.976v-8.208h1.976v3.112h3.2v-3.112H53.3Zm6.293 4.704c-.57.027-1.05.077-1.44.152-.39.07-.701.16-.936.272-.234.112-.402.243-.504.392a.85.85 0 0 0-.152.488c0 .347.102.595.304.744.208.15.478.224.808.224.406 0 .755-.072 1.048-.216.299-.15.59-.373.872-.672v-1.384Zm-4.528-3.56c.944-.864 2.08-1.296 3.408-1.296.48 0 .91.08 1.288.24.379.155.699.373.96.656.262.277.459.61.592 1 .139.39.208.816.208 1.28V57h-.896c-.186 0-.33-.027-.432-.08-.101-.059-.181-.173-.24-.344l-.176-.592c-.208.187-.41.352-.608.496a3.74 3.74 0 0 1-.616.352 3.141 3.141 0 0 1-.688.216c-.24.053-.506.08-.8.08-.346 0-.666-.045-.96-.136a2.156 2.156 0 0 1-.76-.424 1.885 1.885 0 0 1-.496-.696 2.468 2.468 0 0 1-.176-.968 1.89 1.89 0 0 1 .44-1.208c.16-.187.366-.363.616-.528.25-.165.558-.31.92-.432a7.844 7.844 0 0 1 1.28-.296c.486-.08 1.04-.128 1.664-.144v-.48c0-.55-.117-.955-.352-1.216-.234-.267-.573-.4-1.016-.4-.32 0-.586.037-.8.112-.208.075-.392.16-.552.256l-.44.248a.841.841 0 0 1-.432.112.585.585 0 0 1-.352-.104.954.954 0 0 1-.232-.256l-.352-.632Z" fill="#2D2D2D"/></svg>
